img/line-point.svg

<svg width="22" height="6" viewBox="0 0 22 6" fill="none" xmlns="http://www.w3.org/2000/svg">
<path d="M21.8357 4.16272C21.8357 4.32539 21.8357 4.4785 21.833 4.64118C20.8061 5.66511 19.7626 5.33018 18.7164 5.20578C17.2782 5.0431 15.8399 5.13879 14.4017 5.12922C14.352 4.90913 14.3575 4.6986 14.4155 4.49764C14.4735 4.34453 14.537 4.23927 14.606 4.17228C14.7827 4.02874 14.9649 4.04788 15.1443 4.02874C15.2961 4.01917 15.4452 4.01917 15.597 4.00961C15.9973 4.00961 16.3975 4.00961 16.7951 4.00004C17.5542 4.00961 18.3133 4.00004 19.0725 4.00004C19.8454 3.89477 20.6239 4.26798 21.3941 3.71295C21.5542 3.60769 21.7115 3.74166 21.8357 4.16272Z" fill="#787878"/>
<path d="M0.320229 0.478469C3.99447 0.430622 7.66592 0.382775 11.3402 0.325359C11.5858 0.325359 11.8481 0.535885 12.0772 0C13.8992 0.354067 15.7184 0.191388 17.5403 0.0478469C18.9261 -0.0574163 20.3146 0.30622 21.7031 0.468899C21.7832 1.33971 21.5623 1.52153 21.4298 1.89474C21.3829 2.03828 21.3084 2.20096 21.3691 2.43062C21.4326 2.66986 21.5347 2.58373 21.6258 2.5933C21.6948 2.58373 21.7611 2.63158 21.8218 2.73684C21.7335 4.76555 21.2145 4.21053 20.8805 4.40191C20.3891 4.67943 19.8729 4.4689 19.3677 4.4689C18.9675 4.1244 18.5617 4.27751 18.1559 4.2201C17.9875 4.19139 17.7446 4.36364 17.728 3.50239C17.7169 2.83254 17.9378 2.83254 18.0841 2.67943C18.1614 2.5933 18.2691 2.70813 18.3022 2.27751C18.0869 1.88517 17.9074 2.08612 17.7418 2.60287C17.6921 2.75598 17.6452 2.92823 17.6038 3.11005C17.2228 5.1579 16.6348 3.88517 16.149 4.19139C15.4671 3.51196 14.7715 3.25359 14.0648 3.29187C13.8329 3.30144 13.59 3.44498 13.3995 2.9378C13.1621 2.30622 13.0241 3.02392 12.8502 3.25359C12.2732 3.46411 11.6908 2.79426 11.1193 3.45455C10.5948 3.61722 10.1559 1.58852 9.59554 2.75598C9.53204 2.8134 9.46857 2.85168 9.40231 2.87081C8.81709 2.70813 8.23183 2.86124 7.6466 2.73684C6.74115 2.25837 5.83297 1.90431 4.91372 2.31579C4.68184 3.1866 4.41958 3.6555 4.07728 3.0622C3.89509 1.99043 3.72946 2.48804 3.56659 3.13876C3.412 3.39713 3.24913 3.46411 3.08074 3.45455C2.98136 3.46411 2.88196 3.45455 2.78258 3.42584C2.32158 1.55024 1.71151 2.20096 1.13457 2.28708C0.808825 1.84689 0.44446 2.2488 0.12148 1.73206C0.0579882 1.60766 0.0165631 1.41627 0 1.16746C0.0193236 0.468899 0.229132 0.794258 0.320229 0.478469Z" fill="#020202"/>
<path d="M19.2271 4.21052C19.989 4.16267 20.7564 4.50717 21.5018 3.72248C21.6619 3.5598 21.6591 3.54066 21.5625 2.77511C21.5349 2.60287 21.5376 2.44019 21.5735 2.27751C22.0815 2.22009 22.0925 2.9665 21.833 4.16267C20.9276 4.72727 20.0194 4.95693 19.1001 4.622C19.0615 4.53588 19.0449 4.43062 19.0477 4.31578C19.0504 4.19138 19.0587 4.1244 19.0697 4.1244C19.1305 4.0287 19.1829 4.05741 19.2271 4.21052Z" fill="#111111"/>
<path d="M21.5762 2.27765C21.5734 2.44033 21.5679 2.60301 21.5651 2.77526H21.5679C21.4188 3.14847 21.2448 3.19632 21.1427 2.70828C21.0239 2.15325 21.151 1.69392 21.2945 1.36856C21.4768 1.31115 21.6231 1.08148 21.7004 0.459473C22.0814 1.40684 21.659 1.70349 21.5762 2.27765Z" fill="#363636"/>
<path d="M8.46121 4.65065C8.27071 3.72242 8.00012 4.14348 7.75439 4.16261C7.65224 2.99515 7.87866 2.74635 8.12162 2.77505C8.41704 2.81333 8.70969 2.63151 9.00235 2.74635C9.07689 2.78462 9.15145 2.86118 9.22324 2.95687C9.49657 4.02864 9.11279 4.14348 9.0134 4.67936C8.82842 4.66979 8.64343 4.66022 8.46121 4.65065Z" fill="#606060"/>
<path d="M9.01026 4.68909C9.00198 3.98095 9.20077 3.76086 9.29464 3.30153C9.71983 2.93789 9.67841 3.70344 9.56521 4.64124V4.8422C9.38023 4.78478 9.19524 4.73693 9.01026 4.68909Z" fill="#777777"/>
<path d="M14.3877 4.73688C13.4243 4.73688 12.4609 4.73688 11.5002 4.74645C11.3567 4.14358 11.4257 3.66511 11.5748 3.23449C11.9309 2.60291 12.2649 3.58856 12.632 3.43545C12.8032 3.36846 12.8998 2.97612 13.0489 2.9187C13.5458 3.29191 14.0813 2.40195 14.5534 3.49286C14.6168 3.87564 14.6252 4.24885 14.5423 4.62205C14.4899 4.66033 14.4402 4.69861 14.3877 4.73688Z" fill="#4A4A4A"/>
<path d="M14.523 3.79908C13.9985 2.68903 13.4298 3.43544 12.8805 3.30147C12.8446 3.18664 12.8308 3.08138 12.8418 2.96654C12.8529 2.85171 12.8639 2.79429 12.875 2.79429C12.9909 2.04788 13.0461 0.622045 13.3912 2.11487C13.5927 2.98568 13.8273 2.61248 14.0758 2.64118C14.7438 2.72731 15.4285 2.63161 16.0523 3.74166C16.0855 3.85649 16.0993 3.97133 16.0937 4.09573C16.0882 4.2297 16.0799 4.28712 16.0689 4.28712C15.8784 4.4498 15.6493 3.8852 15.4919 4.66989C15.3594 4.66032 15.2242 4.66032 15.0917 4.65075C14.9371 4.12444 14.6389 4.68903 14.523 3.79908Z" fill="#161616"/>
<path d="M19.0723 4.25833C19.0806 4.38273 19.0889 4.50713 19.1027 4.63153C18.3132 4.62196 17.5265 4.60283 16.737 4.59326C16.7149 4.24876 16.7535 4.05737 16.8557 4.01909C17.5955 3.96168 18.338 3.74158 19.0723 4.25833Z" fill="#404040"/>
<path d="M16.7453 4.27755C16.7453 4.38281 16.7426 4.47851 16.7371 4.58377C16.3229 4.61248 15.9088 4.64118 15.4946 4.67946C15.5609 2.79429 15.8259 3.80865 16.0523 4.22013C16.287 3.89477 16.519 3.80865 16.7453 4.27755Z" fill="#373737"/>
<path d="M14.5229 3.79915C14.65 3.86613 14.7687 4.31589 14.904 3.89484C14.973 3.67474 15.0531 3.39723 15.1193 3.78001C15.1552 3.99053 15.1055 4.35417 15.0973 4.65082C14.9123 4.64125 14.7273 4.63168 14.5451 4.62211C14.5368 4.35417 14.5312 4.07666 14.5229 3.79915Z" fill="#373737"/>
<path d="M11.6327 3.26319C11.5885 3.7608 11.5444 4.24883 11.5002 4.74644C11.3649 4.7273 11.2269 4.6986 11.0917 4.67946C10.7714 3.69381 10.3021 3.94261 9.97087 3.06223C9.81352 2.92826 9.64789 2.83257 9.55127 2.29668C9.92118 1.70338 10.28 0.92826 10.6251 2.55505C10.6886 2.86127 10.926 2.74644 11.0806 2.823C11.2407 3.3206 11.4726 2.77515 11.6327 3.26319Z" fill="#393939"/>
<path d="M10.12 2.32544C10.2912 3.86611 11.0339 2.57424 11.0919 4.66994C10.998 4.66994 10.9041 4.67951 10.8075 4.67951C10.6695 4.16276 10.5314 4.1819 10.3906 4.66037C10.2084 4.67951 10.0234 4.68908 9.84116 4.70821C9.57886 3.42592 9.86049 2.89003 10.12 2.32544Z" fill="#707070"/>
<path d="M10.1201 2.32543C9.97378 3.04314 9.81364 3.7417 9.84401 4.70821C9.7529 4.6795 9.65903 4.66036 9.56791 4.63165C9.55411 4.00008 9.55964 3.33022 9.29735 3.29194C9.24765 3.28237 9.19794 3.26323 9.14824 3.25366C9.07646 2.34457 9.36084 2.72735 9.4271 2.32543C9.46852 2.29673 9.50992 2.28716 9.55133 2.27759C9.73908 2.29673 9.9296 2.31587 10.1201 2.32543Z" fill="#515151"/>
<path d="M10.3906 4.66027C10.4127 4.28706 10.4348 3.89472 10.5701 3.84687C10.7468 3.77989 10.7827 4.22008 10.8075 4.67941C10.6695 4.67941 10.5314 4.66984 10.3906 4.66027Z" fill="#787878"/>
<path d="M16.7454 4.27765C16.5135 4.25851 16.2844 4.23938 16.0525 4.22024C16.0525 4.05756 16.0525 3.90445 16.0553 3.74177C16.5742 3.42598 17.2202 4.72741 17.579 2.33507C17.6922 2.68914 17.8302 2.50732 17.9572 2.55516C17.8302 2.48818 17.6895 2.68914 17.5763 2.34464C17.6563 1.69392 17.8026 1.39727 18.0041 1.37813C18.2829 1.34942 18.6501 1.29201 18.686 2.38292C18.7274 3.68435 18.3354 3.11976 18.1229 3.28244C18.0428 3.33985 17.9572 3.33985 17.7447 3.39727C18.3106 4.2011 18.8157 3.1676 19.2326 4.22024C19.1801 4.22981 19.1304 4.24894 19.078 4.25851C18.2968 4.25851 17.5211 4.26808 16.7454 4.27765Z" fill="#0B0B0B"/>
<path d="M11.633 3.26325C11.4397 3.23455 11.2327 3.44507 11.0808 2.81349C11.3265 2.64125 11.6385 3.20584 11.7904 1.98096C11.8511 1.49292 11.9698 1.51206 12.0361 1.98096C12.2321 3.36852 12.5938 2.5934 12.8782 2.79436C12.8782 2.9666 12.881 3.12928 12.881 3.30153C12.6242 4.41158 12.2984 4.1245 11.9919 3.72258C11.8732 3.56947 11.7738 3.23455 11.633 3.26325Z" fill="#151515"/>
<path d="M21.2974 1.36841C21.0986 2.50716 21.2339 2.8708 21.5707 2.77511C21.4106 3.39712 21.2062 3.52152 21.0792 2.82295C20.955 2.16267 21.0268 1.50238 21.2974 1.36841Z" fill="#111111"/>
<path d="M17.5735 2.34458C17.8054 2.44985 18.0345 1.74171 18.4542 2.50726C18.0428 2.88047 17.8137 3.13884 17.5762 2.33501C17.579 2.33501 17.5735 2.34458 17.5735 2.34458Z" fill="#404040"/>
</svg>

<svg width="22" height="6" fill="none" xmlns="http://www.w3.org/2000/svg"><path d="M21.836 4.163c0 .162 0 .316-.003.478-1.027 1.024-2.07.69-3.117.565-1.438-.163-2.876-.067-4.314-.077a1.25 1.25 0 01.014-.631.888.888 0 01.19-.326c.177-.143.359-.124.538-.143.152-.01.301-.01.453-.02.4 0 .8 0 1.198-.009.76.01 1.518 0 2.277 0 .773-.105 1.552.268 2.322-.287.16-.105.318.029.442.45z" fill="#787878"/><path d="M.32.478C3.994.431 7.666.383 11.34.325c.246 0 .508.21.737-.325 1.822.354 3.641.191 5.463.048 1.386-.105 2.775.258 4.163.42.08.872-.14 1.054-.273 1.427-.047.143-.122.306-.06.536.063.239.165.153.256.162.069-.01.135.039.196.144-.088 2.029-.607 1.474-.941 1.665-.492.277-1.008.067-1.513.067-.4-.345-.806-.191-1.212-.249-.168-.029-.411.144-.428-.718-.011-.67.21-.67.356-.823.077-.086.185.03.218-.401-.215-.393-.395-.192-.56.325-.05.153-.097.325-.138.507-.381 2.048-.97.775-1.455 1.081-.682-.679-1.378-.937-2.084-.9-.232.01-.475.154-.665-.353-.238-.632-.376.086-.55.316-.577.21-1.16-.46-1.73.2-.525.163-.964-1.865-1.524-.698a.495.495 0 01-.194.115c-.585-.163-1.17-.01-1.755-.134-.906-.479-1.814-.833-2.733-.421-.232.87-.494 1.34-.837.746-.182-1.072-.348-.574-.51.077-.155.258-.318.325-.486.316-.1.01-.199 0-.298-.03-.461-1.875-1.071-1.224-1.648-1.138-.326-.44-.69-.038-1.014-.555C.058 1.608.017 1.416 0 1.167.02.47.23.794.32.478z" fill="#020202"/><path d="M19.227 4.21c.762-.047 1.53.297 2.275-.488.16-.162.157-.181.06-.947a1.308 1.308 0 01.011-.497c.508-.058.52.688.26 1.885-.905.564-1.814.794-2.733.459a.711.711 0 01-.052-.306c.002-.125.01-.192.022-.192.06-.095.113-.067.157.087z" fill="#111"/><path d="M21.576 2.278c-.003.162-.008.325-.01.497h.002c-.15.373-.323.421-.425-.067a2.144 2.144 0 01.151-1.34c.183-.057.33-.287.406-.909.381.948-.041 1.244-.124 1.819z" fill="#363636"/><path d="M8.461 4.65c-.19-.928-.46-.507-.707-.487-.102-1.168.125-1.417.368-1.388.295.038.588-.143.88-.029.075.039.15.115.221.21.274 1.073-.11 1.187-.21 1.723l-.552-.028z" fill="#606060"/><path d="M9.01 4.69c-.008-.71.19-.93.285-1.388.425-.364.383.401.27 1.34v.2c-.185-.057-.37-.105-.555-.153z" fill="#777"/><path d="M14.388 4.737c-.964 0-1.927 0-2.888.01a2.582 2.582 0 01.075-1.513c.356-.631.69.355 1.057.201.171-.067.268-.459.417-.516.497.373 1.032-.517 1.504.574.064.383.072.756-.01 1.129-.053.038-.103.077-.155.115z" fill="#4A4A4A"/><path d="M14.523 3.8c-.524-1.111-1.093-.365-1.643-.499a.822.822 0 01-.038-.334c.01-.115.022-.173.033-.173.116-.746.171-2.172.516-.68.202.872.436.498.685.527.668.086 1.352-.01 1.976 1.1.034.115.047.23.042.355-.006.134-.014.191-.025.191-.19.163-.42-.402-.577.383-.133-.01-.268-.01-.4-.02-.155-.526-.453.039-.569-.85z" fill="#161616"/><path d="M19.072 4.258c.009.125.017.25.03.374-.789-.01-1.576-.03-2.365-.039-.022-.344.017-.536.119-.574.74-.057 1.482-.277 2.216.24z" fill="#404040"/><path d="M16.745 4.278c0 .105-.002.2-.008.306-.414.028-.828.057-1.242.095.066-1.885.33-.87.557-.459.235-.325.467-.411.693.058zM14.523 3.8c.127.066.246.516.381.095.069-.22.15-.498.215-.115.036.21-.014.574-.022.87l-.552-.028-.022-.823z" fill="#373737"/><path d="M11.633 3.263L11.5 4.746c-.135-.019-.273-.047-.408-.067-.32-.985-.79-.736-1.121-1.617-.157-.134-.323-.23-.42-.765.37-.594.729-1.369 1.074.258.064.306.301.191.456.268.16.498.392-.048.552.44z" fill="#393939"/><path d="M10.12 2.325c.171 1.541.914.25.972 2.345-.094 0-.188.01-.285.01-.138-.517-.276-.498-.416-.02-.183.02-.368.03-.55.048-.262-1.282.02-1.818.279-2.383z" fill="#707070"/><path d="M10.12 2.325c-.146.718-.306 1.417-.276 2.383-.091-.029-.185-.048-.276-.076-.014-.632-.008-1.302-.27-1.34-.05-.01-.1-.029-.15-.038-.072-.91.213-.527.28-.929a.334.334 0 01.123-.047c.188.019.379.038.57.047z" fill="#515151"/><path d="M10.39 4.66c.023-.373.045-.765.18-.813.177-.067.213.373.237.832-.138 0-.276-.01-.416-.019z" fill="#787878"/><path d="M16.745 4.278l-.693-.058c0-.162 0-.316.003-.478.52-.316 1.165.985 1.524-1.407.113.354.251.172.378.22-.127-.067-.268.134-.38-.21.08-.651.226-.948.427-.967.279-.029.646-.086.682 1.005.041 1.301-.35.737-.563.9-.08.057-.166.057-.378.114.566.804 1.07-.23 1.488.823-.053.01-.103.029-.155.039-.781 0-1.557.01-2.333.019z" fill="#0B0B0B"/><path d="M11.633 3.263c-.193-.028-.4.182-.552-.45.245-.172.558.393.71-.832.06-.488.179-.469.245 0 .196 1.388.558.612.842.813 0 .173.003.335.003.508-.257 1.11-.583.823-.89.42-.118-.153-.217-.487-.358-.459z" fill="#151515"/><path d="M21.297 1.368c-.198 1.14-.063 1.503.274 1.407-.16.622-.365.747-.492.048-.124-.66-.052-1.32.218-1.455z" fill="#111"/><path d="M17.573 2.345c.232.105.462-.603.881.162-.411.373-.64.632-.878-.172.003 0-.003.01-.003.01z" fill="#404040"/></svg>
